X:10
T:Katie's Waltz
C:Corwin Zekley
L:1/8
M:3/4
K:G
 x3 D GA |"G" B3 A GD |"C" E2 G3 B, |"G" E2 D4- | D3 D GA |$ B3 E GA |"Am" c3 B de |"Em" B3 B eg | %8
 b3 a gf |$"C" e3 d cd |"G" B2 G3 A |"Bm" B3 A GF |"C" E3 D GA |$"G" B3 A GD |"C" E2 G3 A | %15
"G" G6- | G3 F Bd |$"Bm" f3 e fa |"Em" g2 e4 |"Bm" f3 e fa |"C" g2 e2 ga |$"G" b3 a gB | %22
"Bm" e2 d3 B |"Am" A3 E GA |"D" F3 D GA |$"G" B3 A GD |"C" E2 G3 D |"C#dim" E2 F2 G2 |"D7" A4 GA |$ %29
"A7" B3 A G2 |"Eb7" G2 A2"D7" F2 |"G" G6- | G3 x3 |] %33

